X: 33095
T: Prince And Princess Of Orange, The
R: jig
M: 6/8
K: Gmajor
GBd g2d|edc cBd|dcB BAG|GFG A3|
GBd g2d|edc cBd|d^ce edB|FGE D3:|
|:DFA cBA|edc cBe|e^df fec|AFG E3|
GcB Adc|BAG d3|dgd eGc|BcA G3:|

